src/assets/icons/farm.svg

<?xml version="1.0" encoding="utf-8"?>
<!-- Generator: Adobe Illustrator 25.3.1, SVG Export Plug-In . SVG Version: 6.00 Build 0)  -->
<svg version="1.1" id="Layer_1" xmlns="http://www.w3.org/2000/svg" xmlns:xlink="http://www.w3.org/1999/xlink" x="0px" y="0px"
	 viewBox="0 0 100 100" style="enable-background:new 0 0 100 100;" xml:space="preserve">
<style type="text/css">
	.st0{fill:#3B3F3D;}
	.st1{fill:#E19227;}
	.st2{fill:#FCD09A;}
	.st3{fill:#FFFFFF;}
</style>
<g>
	<circle class="st0" cx="50" cy="50" r="50"/>
	<path class="st1" d="M79.1,47.2c2-2,5.5-1.9,7.1-1.8c0.1,1.5,0.2,5.1-1.8,7.1c-2,2-5.5,1.9-7.1,1.8C77.2,52.7,77.1,49.2,79.1,47.2z
		"/>
	<path class="st1" d="M74.8,59.4c-1.5,0.1-5.1,0.2-7.1-1.8c-2-2-1.9-5.5-1.8-7.1c1.5-0.1,5.1-0.2,7.1,1.8
		C75,54.3,74.9,57.9,74.8,59.4z"/>
	<path class="st1" d="M78.9,31.1c2-2,5.5-1.9,7.1-1.8c0.1,1.5,0.2,5.1-1.8,7.1c-2,2-5.5,1.9-7.1,1.8c0-0.4-0.1-0.9,0-1.4v-0.1
		C77,35,77.4,32.6,78.9,31.1z"/>
	<path class="st1" d="M72.3,20.3c0-2.8,2.6-5.3,3.7-6.3c1.2,1,3.7,3.5,3.7,6.3s-2.6,5.3-3.7,6.3C74.9,25.5,72.3,23.1,72.3,20.3z"/>
	<path class="st1" d="M74.6,43.2c-1.5,0.1-5.1,0.2-7.1-1.8s-1.9-5.5-1.8-7.1c1.5-0.1,5.1-0.2,7.1,1.8C74.8,38.1,74.7,41.7,74.6,43.2
		z"/>
	<path class="st2" d="M53.2,47.2c2-2,5.5-1.9,7.1-1.8c0.1,1.5,0.2,5.1-1.8,7.1c-2,2-5.5,1.9-7.1,1.8C51.3,52.7,51.2,49.2,53.2,47.2z
		"/>
	<path class="st2" d="M48.9,59.4c-1.5,0.1-5.1,0.2-7.1-1.8s-1.9-5.5-1.8-7.1c1.5-0.1,5.1-0.2,7.1,1.8S49,57.9,48.9,59.4z"/>
	<path class="st2" d="M52.9,31.1c2-2,5.5-1.9,7.1-1.8c0.1,1.5,0.2,5.1-1.8,7.1c-2,2-5.5,1.9-7.1,1.8c0-0.4-0.1-0.9,0-1.4v-0.1
		C51.1,35,51.5,32.6,52.9,31.1z"/>
	<path class="st2" d="M46.4,20.3c0-2.8,2.6-5.3,3.7-6.3c1.2,1,3.7,3.5,3.7,6.3s-2.6,5.3-3.7,6.3C49,25.5,46.4,23.1,46.4,20.3z"/>
	<path class="st2" d="M48.7,43.2c-1.5,0.1-5.1,0.2-7.1-1.8c-2-2-1.9-5.5-1.8-7.1c1.5-0.1,5.1-0.2,7.1,1.8
		C48.8,38.1,48.8,41.7,48.7,43.2z"/>
	<path class="st1" d="M27.3,47.2c2-2,5.5-1.9,7.1-1.8c0.1,1.5,0.2,5.1-1.8,7.1c-2,2-5.5,1.9-7.1,1.8C25.3,52.7,25.3,49.2,27.3,47.2z
		"/>
	<path class="st1" d="M23,59.4c-1.5,0.1-5.1,0.2-7.1-1.8s-1.9-5.5-1.8-7.1c1.5-0.1,5.1-0.2,7.1,1.8S23.1,57.9,23,59.4z"/>
	<path class="st1" d="M27,31.1c2-2,5.5-1.9,7.1-1.8c0.1,1.5,0.2,5.1-1.8,7.1c-2,2-5.5,1.9-7.1,1.8c0-0.3,0-0.7,0-1.2v-0.4
		C25.2,34.9,25.6,32.6,27,31.1z"/>
	<path class="st1" d="M20.5,20.3c0-2.8,2.6-5.3,3.7-6.3c1.2,1,3.7,3.5,3.7,6.3s-2.6,5.3-3.7,6.3C23.1,25.5,20.5,23.1,20.5,20.3z"/>
	<path class="st1" d="M22.8,43.2c-1.5,0.1-5.1,0.2-7.1-1.8s-1.9-5.5-1.8-7.1c1.5-0.1,5.1-0.2,7.1,1.8C22.9,38.1,22.9,41.7,22.8,43.2
		z"/>
	<path class="st1" d="M25.2,64.6V25.4c0-0.3-0.4-0.5-1-0.5c-0.5,0-1,0.2-1,0.5v39.2c0,0.3,0.4,0.5,1,0.5
		C24.8,65.1,25.2,64.9,25.2,64.6z"/>
	<path class="st2" d="M51,64.6V25.4c0-0.3-0.4-0.5-1-0.5c-0.5,0-1,0.2-1,0.5v39.2c0,0.3,0.4,0.5,1,0.5C50.6,65.1,51,64.9,51,64.6z"
		/>
	<path class="st1" d="M77,64.6V25.4c0-0.3-0.4-0.5-1-0.5c-0.5,0-1,0.2-1,0.5v39.2c0,0.3,0.4,0.5,1,0.5S77,64.9,77,64.6z"/>
	<path class="st3" d="M4.9,71.5h90.3c1-2.1,1.9-4.3,2.6-6.5H2.3C3,67.2,3.9,69.4,4.9,71.5z"/>
	<path class="st2" d="M9.8,79.6h80.6c1.5-2.1,2.9-4.3,4.1-6.5H5.7C6.9,75.4,8.2,77.6,9.8,79.6z"/>
	<path class="st2" d="M29.9,95.8h40.2c3.9-1.7,7.6-4,10.9-6.6H19.1C22.4,91.8,26,94.1,29.9,95.8z"/>
	<path class="st3" d="M11,81.3c1.9,2.4,4,4.6,6.3,6.5h65.5c2.3-2,4.4-4.2,6.3-6.5H11z"/>
</g>
</svg>

<?xml version="1.0" encoding="UTF-8"?>
<svg width="101px" height="101px" viewBox="0 0 101 101" version="1.1" xmlns="http://www.w3.org/2000/svg" xmlns:xlink="http://www.w3.org/1999/xlink">
    <title>farm</title>
    <g id="Page-1" stroke="none" stroke-width="1" fill="none" fill-rule="evenodd">
        <g id="farm" transform="translate(0.200000, 0.200000)" fill-rule="nonzero">
            <path d="M79.1,47.2 C81.1,45.2 84.6,45.3 86.2,45.4 C86.3,46.9 86.4,50.5 84.4,52.5 C82.4,54.5 78.9,54.4 77.3,54.3 C77.2,52.7 77.1,49.2 79.1,47.2 Z" id="Path" fill="#E19227"></path>
            <path d="M74.8,59.4 C73.3,59.5 69.7,59.6 67.7,57.6 C65.7,55.6 65.8,52.1 65.9,50.5 C67.4,50.4 71,50.3 73,52.3 C75,54.3 74.9,57.9 74.8,59.4 Z" id="Path" fill="#E19227"></path>
            <path d="M78.9,31.1 C80.9,29.1 84.4,29.2 86,29.3 C86.1,30.8 86.2,34.4 84.2,36.4 C82.2,38.4 78.7,38.3 77.1,38.2 C77.1,37.8 77,37.3 77.1,36.8 L77.1,36.7 C77,35 77.4,32.6 78.9,31.1 Z" id="Path" fill="#E19227"></path>
            <path d="M72.3,20.3 C72.3,17.5 74.9,15 76,14 C77.2,15 79.7,17.5 79.7,20.3 C79.7,23.1 77.1,25.6 76,26.6 C74.9,25.5 72.3,23.1 72.3,20.3 Z" id="Path" fill="#E19227"></path>
            <path d="M74.6,43.2 C73.1,43.3 69.5,43.4 67.5,41.4 C65.5,39.4 65.6,35.9 65.7,34.3 C67.2,34.2 70.8,34.1 72.8,36.1 C74.8,38.1 74.7,41.7 74.6,43.2 Z" id="Path" fill="#E19227"></path>
            <path d="M53.2,47.2 C55.2,45.2 58.7,45.3 60.3,45.4 C60.4,46.9 60.5,50.5 58.5,52.5 C56.5,54.5 53,54.4 51.4,54.3 C51.3,52.7 51.2,49.2 53.2,47.2 Z" id="Path" fill="#FCD09A"></path>
            <path d="M48.9,59.4 C47.4,59.5 43.8,59.6 41.8,57.6 C39.8,55.6 39.9,52.1 40,50.5 C41.5,50.4 45.1,50.3 47.1,52.3 C49.1,54.3 49,57.9 48.9,59.4 Z" id="Path" fill="#FCD09A"></path>
            <path d="M52.9,31.1 C54.9,29.1 58.4,29.2 60,29.3 C60.1,30.8 60.2,34.4 58.2,36.4 C56.2,38.4 52.7,38.3 51.1,38.2 C51.1,37.8 51,37.3 51.1,36.8 L51.1,36.7 C51.1,35 51.5,32.6 52.9,31.1 Z" id="Path" fill="#FCD09A"></path>
            <path d="M46.4,20.3 C46.4,17.5 49,15 50.1,14 C51.3,15 53.8,17.5 53.8,20.3 C53.8,23.1 51.2,25.6 50.1,26.6 C49,25.5 46.4,23.1 46.4,20.3 Z" id="Path" fill="#FCD09A"></path>
            <path d="M48.7,43.2 C47.2,43.3 43.6,43.4 41.6,41.4 C39.6,39.4 39.7,35.9 39.8,34.3 C41.3,34.2 44.9,34.1 46.9,36.1 C48.8,38.1 48.8,41.7 48.7,43.2 Z" id="Path" fill="#FCD09A"></path>
            <path d="M27.3,47.2 C29.3,45.2 32.8,45.3 34.4,45.4 C34.5,46.9 34.6,50.5 32.6,52.5 C30.6,54.5 27.1,54.4 25.5,54.3 C25.3,52.7 25.3,49.2 27.3,47.2 Z" id="Path" fill="#E19227"></path>
            <path d="M23,59.4 C21.5,59.5 17.9,59.6 15.9,57.6 C13.9,55.6 14,52.1 14.1,50.5 C15.6,50.4 19.2,50.3 21.2,52.3 C23.2,54.3 23.1,57.9 23,59.4 Z" id="Path" fill="#E19227"></path>
            <path d="M27,31.1 C29,29.1 32.5,29.2 34.1,29.3 C34.2,30.8 34.3,34.4 32.3,36.4 C30.3,38.4 26.8,38.3 25.2,38.2 C25.2,37.9 25.2,37.5 25.2,37 L25.2,36.6 C25.2,34.9 25.6,32.6 27,31.1 Z" id="Path" fill="#E19227"></path>
            <path d="M20.5,20.3 C20.5,17.5 23.1,15 24.2,14 C25.4,15 27.9,17.5 27.9,20.3 C27.9,23.1 25.3,25.6 24.2,26.6 C23.1,25.5 20.5,23.1 20.5,20.3 Z" id="Path" fill="#E19227"></path>
            <path d="M22.8,43.2 C21.3,43.3 17.7,43.4 15.7,41.4 C13.7,39.4 13.8,35.9 13.9,34.3 C15.4,34.2 19,34.1 21,36.1 C22.9,38.1 22.9,41.7 22.8,43.2 Z" id="Path" fill="#E19227"></path>
            <path d="M25.2,64.6 L25.2,25.4 C25.2,25.1 24.8,24.9 24.2,24.9 C23.7,24.9 23.2,25.1 23.2,25.4 L23.2,64.6 C23.2,64.9 23.6,65.1 24.2,65.1 C24.8,65.1 25.2,64.9 25.2,64.6 Z" id="Path" fill="#E19227"></path>
            <path d="M51,64.6 L51,25.4 C51,25.1 50.6,24.9 50,24.9 C49.5,24.9 49,25.1 49,25.4 L49,64.6 C49,64.9 49.4,65.1 50,65.1 C50.6,65.1 51,64.9 51,64.6 Z" id="Path" fill="#FCD09A"></path>
            <path d="M77,64.6 L77,25.4 C77,25.1 76.6,24.9 76,24.9 C75.5,24.9 75,25.1 75,25.4 L75,64.6 C75,64.9 75.4,65.1 76,65.1 C76.6,65.1 77,64.9 77,64.6 Z" id="Path" fill="#E19227"></path>
            <path d="M4.9,71.5 L95.2,71.5 C96.2,69.4 97.1,67.2 97.8,65 L2.3,65 C3,67.2 3.9,69.4 4.9,71.5 Z" id="Path" fill="#FFFFFF"></path>
            <path d="M9.8,79.6 L90.4,79.6 C91.9,77.5 93.3,75.3 94.5,73.1 L5.7,73.1 C6.9,75.4 8.2,77.6 9.8,79.6 Z" id="Path" fill="#FCD09A"></path>
            <path d="M29.9,95.8 L70.1,95.8 C74,94.1 77.7,91.8 81,89.2 L19.1,89.2 C22.4,91.8 26,94.1 29.9,95.8 Z" id="Path" fill="#FCD09A"></path>
            <path d="M11,81.3 C12.9,83.7 15,85.9 17.3,87.8 L82.8,87.8 C85.1,85.8 87.2,83.6 89.1,81.3 L11,81.3 Z" id="Path" fill="#FFFFFF"></path>
        </g>
    </g>
</svg>
